X: 23919
T: Loch Of Lumgair
R: jig
M: 6/8
K: Dmajor
|:A|FAd fed|g2 B d2 G|FAd dcd|f2 d ecA|
FAd f2 d|g2 B e2 B|cea g2 c|d3 d2:|
|:f|afd dAF|GB/c/d g2 e|faf dcd|
[1 e2 A efg|afd dAF|G2 d g2 e|faf g2 c|d3 d2:|
[2 e2 A GFE|FAd fed|g2 B e2 B|cea g2 c|d3- d2||

